miniprogram/assets/figma/grid-wallet.svg

<svg width="24" height="24" viewBox="0 0 24 24" fill="none" xmlns="http://www.w3.org/2000/svg">
<path d="M17.0001 14.25C17.0001 13.6977 17.4478 13.25 18.0001 13.25C18.5523 13.25 19.0002 13.6977 19.0002 14.25C19.0002 14.8023 18.5524 15.25 18.0002 15.25C17.4479 15.25 17.0001 14.8023 17.0001 14.25Z" fill="#9CA3AF"/>
<path d="M6.00006 16.25C5.58585 16.25 5.25006 16.5858 5.25006 17C5.25006 17.4142 5.58585 17.75 6.00006 17.75H10.0001C10.4143 17.75 10.7501 17.4142 10.7501 17C10.7501 16.5858 10.4143 16.25 10.0001 16.25H6.00006Z" fill="#9CA3AF"/>
<path fill-rule="evenodd" clip-rule="evenodd" d="M1.25003 10.8279C1.24959 9.54493 1.24929 8.69428 1.53916 7.94905C1.79449 7.29265 2.20893 6.71 2.74524 6.25347C3.35413 5.73516 4.1578 5.45638 5.36993 5.03591L14.5686 1.84146C15.1671 1.6336 15.6638 1.4611 16.0726 1.35916C16.4923 1.25451 16.9138 1.19789 17.3377 1.3004C17.9625 1.45149 18.5051 1.83744 18.8528 2.37809C19.0887 2.74492 19.1735 3.16163 19.2123 3.59242C19.2501 4.01205 19.2501 4.53787 19.2501 5.17145V5.85572C19.6783 5.92028 20.0657 6.02785 20.4295 6.21322C21.2292 6.62068 21.8794 7.27085 22.2868 8.07054C22.5404 8.56824 22.6484 9.11012 22.6999 9.74013C22.7501 10.3544 22.7501 11.1149 22.7501 12.0673V16.4326C22.7501 17.385 22.7501 18.1456 22.6999 18.7599C22.6484 19.3899 22.5404 19.9318 22.2868 20.4295C21.8794 21.2291 21.2292 21.8793 20.4295 22.2868C19.9318 22.5404 19.3899 22.6483 18.7599 22.6998C18.1457 22.75 17.3852 22.75 16.4328 22.75H7.56743C6.61503 22.75 5.85444 22.75 5.24019 22.6998C4.61018 22.6483 4.0683 22.5404 3.5706 22.2868C2.77091 21.8793 2.12075 21.2291 1.71328 20.4295C1.45969 19.9318 1.35171 19.3899 1.30024 18.7599C1.25005 18.1456 1.25005 17.3851 1.25006 16.4326L1.25003 10.8279ZM15.0276 3.26996C15.6677 3.04767 16.1002 2.89821 16.4356 2.81459C16.7675 2.73181 16.9093 2.74004 16.9851 2.75837C17.235 2.81881 17.4521 2.97319 17.5912 3.18945C17.6334 3.25507 17.6876 3.38629 17.7183 3.72704C17.7493 4.07124 17.7501 4.52891 17.7501 5.20651V5.75671C17.3571 5.74999 16.92 5.75 16.4327 5.75H7.88616L15.0276 3.26996ZM2.75006 13.0039L2.75007 13.0001V11.9556C2.75023 11.0391 2.75284 10.3814 2.79526 9.86228C2.83915 9.32503 2.92191 9.00252 3.04979 8.75153C3.31345 8.23408 3.73414 7.81338 4.25159 7.54973C4.50258 7.42184 4.82509 7.33909 5.36234 7.29519C5.90835 7.25058 6.60759 7.25 7.60006 7.25H16.4001C17.3925 7.25 18.0918 7.25058 18.6378 7.29519C19.175 7.33909 19.4975 7.42184 19.7485 7.54973C20.266 7.81338 20.6867 8.23408 20.9503 8.75153C21.0782 9.00252 21.161 9.32503 21.2049 9.86228C21.2495 10.4083 21.2501 11.1075 21.2501 12.1V16.4C21.2501 17.3925 21.2495 18.0917 21.2049 18.6377C21.161 19.175 21.0782 19.4975 20.9503 19.7485C20.6867 20.2659 20.266 20.6866 19.7485 20.9503C19.4975 21.0782 19.175 21.1609 18.6378 21.2048C18.0918 21.2494 17.3925 21.25 16.4001 21.25H7.60006C6.60759 21.25 5.90835 21.2494 5.36234 21.2048C4.82509 21.1609 4.50258 21.0782 4.25159 20.9503C3.73414 20.6866 3.31345 20.2659 3.04979 19.7485C2.92191 19.4975 2.83915 19.175 2.79526 18.6377C2.75064 18.0917 2.75006 17.3925 2.75006 16.4V13.0039Z" fill="#9CA3AF"/>
</svg>

<svg xmlns="http://www.w3.org/2000/svg" width="24" height="24" fill="none" viewBox="0 0 24 24"><path fill="#9ca3af" d="M17 14.25a1 1 0 1 1 2 0 1 1 0 0 1-2 0m-11 2a.75.75 0 0 0 0 1.5h4a.75.75 0 0 0 0-1.5z"/><path fill="#9ca3af" fill-rule="evenodd" d="M1.25 10.828c0-1.283 0-2.134.29-2.879a4.25 4.25 0 0 1 1.205-1.696c.61-.518 1.413-.797 2.625-1.217l9.199-3.195c.598-.207 1.095-.38 1.504-.482.42-.104.84-.161 1.265-.059a2.5 2.5 0 0 1 1.515 1.078c.236.367.32.784.36 1.214.037.42.037.946.037 1.58v.684c.428.064.816.172 1.18.357a4.25 4.25 0 0 1 1.857 1.858c.253.497.361 1.04.413 1.67.05.613.05 1.374.05 2.326v4.366c0 .952 0 1.713-.05 2.327-.052.63-.16 1.172-.413 1.67a4.25 4.25 0 0 1-1.857 1.857c-.498.253-1.04.361-1.67.413-.614.05-1.375.05-2.327.05H7.567c-.952 0-1.713 0-2.327-.05-.63-.052-1.172-.16-1.67-.413a4.25 4.25 0 0 1-1.857-1.857c-.253-.498-.361-1.04-.413-1.67-.05-.614-.05-1.375-.05-2.327zM15.028 3.27c.64-.222 1.072-.372 1.408-.455.331-.083.473-.075.55-.057a1 1 0 0 1 .605.431c.042.066.097.197.127.538.031.344.032.802.032 1.48v.55q-.588-.009-1.317-.007H7.886zM2.75 13.004v-1.048c0-.917.003-1.575.045-2.094.044-.537.127-.86.255-1.11A2.75 2.75 0 0 1 4.252 7.55c.25-.128.573-.21 1.11-.255.546-.044 1.246-.045 2.238-.045h8.8c.992 0 1.692 0 2.238.045.537.044.86.127 1.11.255a2.75 2.75 0 0 1 1.202 1.202c.128.25.211.573.255 1.11.045.546.045 1.245.045 2.238v4.3c0 .992 0 1.692-.045 2.238-.044.537-.127.86-.255 1.11a2.75 2.75 0 0 1-1.201 1.202c-.252.128-.574.21-1.111.255-.546.044-1.246.045-2.238.045H7.6c-.992 0-1.692 0-2.238-.045-.537-.044-.86-.127-1.11-.255a2.75 2.75 0 0 1-1.202-1.2c-.128-.252-.21-.574-.255-1.111-.044-.546-.045-1.246-.045-2.238z" clip-rule="evenodd"/></svg>
